resources/svg/tape-option.svg

<svg xmlns="http://www.w3.org/2000/svg" viewBox="0 0 24 24" fill="currentColor"><path fill="none" stroke="currentColor" stroke-width="2" d="M1,2 L22,2 L22,22 L2,22 L2,7 M12,19 C8.13409091,19 5,15.8659091 5,12 M12,19 C15.8659091,19 19,15.8659091 19,12 C19,8.13409091 15.8659091,5 12,5 L1,5 M12,9 C10.3455,9 9,10.3455 9,12 C9,13.6545 10.3455,15 12,15 C13.6545,15 15,13.6545 15,12 C15,10.3455 13.6545,9 12,9 Z"/></svg>

<svg viewBox="0 0 24 24"><path fill="none" stroke="currentColor" stroke-width="2" d="M1 2h21v20H2V7m10 12a7 7 0 0 1-7-7m7 7a7 7 0 0 0 0-14H1m11 4c-1.655 0-3 1.345-3 3s1.345 3 3 3s3-1.345 3-3s-1.345-3-3-3z"/></svg>
